common/assets/images/icn-champagne.svg

<svg xmlns="http://www.w3.org/2000/svg" width="230" height="230" viewBox="0 0 230 230">
    <g fill="none" fill-rule="evenodd">
        <g fill-rule="nonzero">
            <path fill="#81CC3B" d="M166.542 45.178l7.59-7.59 18.535 18.534-7.59 7.59z"/>
            <path fill="#7AD832" d="M50.969 225.318L4.937 179.283c17.485-20.753 24.949-29.021 35.382-38.646l49.296 49.296c-9.629 10.433-18.226 18.329-38.646 35.385zM134.088 78.437c-22.944 16.753-31.669 13.294-58.723 32.693l43.735 43.739c19.311-26.98 15.902-35.723 32.707-58.701l-13.931-3.789-3.788-13.942z"/>
        </g>
        <g fill="#7BBA38" fill-rule="nonzero">
            <path d="M175.209 53.843l7.59-7.59 9.87 9.867-7.592 7.591zM50.969 225.318c20.42-17.056 29.017-24.949 38.628-35.385l-25.232-25.247-37.017 37.012 23.62 23.62zM119.1 154.869c19.311-26.98 15.902-35.723 32.707-58.701l-13.931-3.789-.259-.946-40.974 40.975 22.457 22.461z"/>
        </g>
        <g fill="#FEEF6B" fill-rule="nonzero">
            <path d="M119.1 154.869c-6.081 8.505-15.27 19.655-29.489 35.085l-49.295-49.296c15.412-14.225 26.579-23.422 35.049-29.507L119.1 154.87zM168.885 47.524c-14.97 14.97-25.945 24.453-34.801 30.913l3.788 13.942 13.932 3.789c6.481-8.86 15.947-19.846 30.924-34.798l-13.843-13.846z"/>
        </g>
        <g fill="#FEEF6B" fill-rule="nonzero">
            <path d="M189.939 33.555l16.093-16.093 5.799 5.799-16.093 16.093zM205.778 55.904l21.358-7.85 2.83 7.698-21.359 7.85zM166.645 21.657l7.85-21.358 7.697 2.829-7.85 21.358z"/>
        </g>
        <path fill="#005268" fill-rule="nonzero" d="M161.698 45.178l2.336 2.335c-12.514 12.38-22.986 21.593-31.967 28.157-10.82 7.903-18.389 11.18-26.405 14.65-8.374 3.63-17.011 7.375-29.914 16.348l-2.389 1.68-3.278 2.35.032.032c-8.23 6.17-18.003 14.448-29.709 25.161l-2.417 2.233-2.619 2.417c-9.632 9.133-17.581 18.134-33.075 36.524L.269 179.47l50.494 50.48 2.396-2.006c18.719-15.633 27.621-23.663 36.53-33.086l2.417-2.62 2.23-2.416c10.702-11.695 18.977-21.484 25.161-29.723l.032.032 2.35-3.282.021-.028 1.67-2.332c8.901-12.815 12.644-21.43 16.266-29.769 3.49-8.045 6.79-15.643 14.742-26.516 6.567-8.98 15.8-19.46 28.167-31.97l2.336 2.336 12.432-12.432-23.39-23.39-12.425 12.429zM51.174 220.68L9.57 179.088c15.058-17.822 22.23-25.725 30.65-33.688l41.248 41.23 3.385 3.384c-8.367 8.86-16.734 16.469-33.678 30.666zm38.335-35.688l-44.246-44.249c11.819-10.809 21.618-19.07 29.769-25.116l19.792 19.793 19.783 19.803c-6.046 8.151-14.314 17.947-25.098 29.77zm44.04-63.01c-3.392 7.796-6.886 15.866-14.91 27.582l-37.969-37.97c11.798-8.09 19.878-11.592 27.714-14.987 7.35-3.19 14.345-6.212 23.68-12.556l3.023 11.114 11.1 3.02c-6.387 9.387-9.438 16.411-12.642 23.793l.004.004zm16.904-29.73l-9.784-2.662-2.662-9.795c8.82-6.645 18.964-15.657 30.875-27.434l9.022 9.012c-11.78 11.908-20.799 22.05-27.454 30.875l.003.004zm34.624-33.377l-13.693-13.697 2.75-2.747 13.693 13.69-2.75 2.754z"/>
        <g fill="#FEEF6B" fill-rule="nonzero">
            <path d="M71.438 40.493h6.85v-4.671h4.671v-6.847h-4.67v-4.67h-6.85v4.67h-4.672v6.847h4.671zM212.847 148.944h-6.85v4.67h-4.67v6.85h4.67v4.668h6.85v-4.667h4.671v-6.85h-4.67zM137.794 189.543h-6.85v4.67h-4.67v6.85h4.67v4.672h6.85v-4.671h4.671v-6.85h-4.67zM15.788 110.202h8.201v8.2h-8.2zM167.38 133.202h8.2v8.2h-8.2zM37.491 77.899h8.201v8.2h-8.2z"/>
        </g>
        <g fill="#FFF" fill-rule="nonzero">
            <path d="M51.071 216.565l-13.024-13.024 4.845-4.844 8.551 8.551 13.106-11.163 4.44 5.213zM27.963 193.453l5.8-5.8 6.607 6.609-5.799 5.799z"/>
        </g>
        <path fill="#FFF" d="M89.464 141.312c-4.3-4.3-11.273-4.3-15.573 0-4.3 4.3-4.3 11.273 0 15.573 4.3 4.3 11.273 4.3 15.573 0a11.012 11.012 0 0 0 0-15.573z"/>
        <path fill="#007896" fill-rule="nonzero" d="M90.517 139.839c-4.882-4.882-12.797-4.882-17.678 0-4.882 4.881-4.882 12.796 0 17.678 4.881 4.881 12.796 4.881 17.678 0a12.5 12.5 0 0 0 0-17.678zm-8.547 14.656l-4.58.027a1.562 1.562 0 0 1-1.098-.447 1.562 1.562 0 0 1-.448-1.1l.039-4.568a1.562 1.562 0 0 1 1.574-1.574.852.852 0 0 1 .862.861l-.017 2.315a2.047 2.047 0 0 0 2.066 2.066H82.7a.852.852 0 0 1 .861.862 1.563 1.563 0 0 1-1.58 1.569l-.01-.011zm6.077-1.293a.836.836 0 0 1-.596-.243.781.781 0 0 1-.238-.569v-2.21a1.945 1.945 0 0 0-.575-1.392 2.008 2.008 0 0 0-1.441-.59l-2.238.027a.836.836 0 0 1-.718-.387.781.781 0 0 1-.149-.47v-2.21a1.945 1.945 0 0 0-.575-1.391 2.008 2.008 0 0 0-1.441-.592l-2.238.028a.836.836 0 0 1-.823-.823 1.563 1.563 0 0 1 1.508-1.508l4.453-.033c.403-.006.792.151 1.077.436.273.272.424.643.42 1.028l-.033 3.613 3.668-.023a1.5 1.5 0 0 1 1.077.437c.28.273.435.648.431 1.038l-.039 4.381a1.562 1.562 0 0 1-1.524 1.47l-.006-.017z"/>
    </g>
</svg>

<svg width="230" height="230" viewBox="0 0 230 230" fill="none" xmlns="http://www.w3.org/2000/svg">
<path d="M166.542 45.178L174.132 37.588L192.667 56.122L185.077 63.712L166.542 45.178Z" fill="#81CC3B"/>
<path d="M50.969 225.318L4.93701 179.283C22.422 158.53 29.886 150.262 40.319 140.637L89.615 189.933C79.986 200.366 71.389 208.262 50.969 225.318V225.318ZM134.088 78.437C111.144 95.19 102.419 91.731 75.365 111.13L119.1 154.869C138.411 127.889 135.002 119.146 151.807 96.168L137.876 92.379L134.088 78.437V78.437Z" fill="#7AD832"/>
<path d="M175.209 53.843L182.799 46.253L192.669 56.12L185.077 63.711L175.209 53.843ZM50.969 225.318C71.389 208.262 79.986 200.369 89.597 189.933L64.365 164.686L27.348 201.698L50.968 225.318H50.969ZM119.1 154.869C138.411 127.889 135.002 119.146 151.807 96.168L137.876 92.379L137.617 91.433L96.643 132.408L119.1 154.869V154.869Z" fill="#7BBA38"/>
<path d="M119.1 154.869C113.019 163.374 103.83 174.524 89.611 189.954L40.316 140.658C55.728 126.433 66.895 117.236 75.365 111.151L119.1 154.87V154.869ZM168.885 47.524C153.915 62.494 142.94 71.977 134.084 78.437L137.872 92.379L151.804 96.168C158.285 87.308 167.751 76.322 182.728 61.37L168.885 47.524V47.524Z" fill="#FEEF6B"/>
<path d="M189.939 33.555L206.032 17.462L211.831 23.261L195.738 39.354L189.939 33.555ZM205.778 55.904L227.136 48.054L229.966 55.752L208.607 63.602L205.778 55.904ZM166.645 21.657L174.495 0.299011L182.192 3.12801L174.342 24.486L166.645 21.657Z" fill="#FEEF6B"/>
<path d="M161.698 45.178L164.034 47.513C151.52 59.893 141.048 69.106 132.067 75.67C121.247 83.573 113.678 86.85 105.662 90.32C97.288 93.95 88.651 97.695 75.748 106.668L73.359 108.348L70.081 110.698L70.113 110.73C61.883 116.9 52.11 125.178 40.404 135.891L37.987 138.124L35.368 140.541C25.736 149.674 17.787 158.675 2.29298 177.065L0.268982 179.47L50.763 229.95L53.159 227.944C71.878 212.311 80.78 204.281 89.689 194.858L92.106 192.238L94.336 189.822C105.038 178.127 113.313 168.338 119.497 160.099L119.529 160.131L121.879 156.849L121.9 156.821L123.57 154.489C132.471 141.674 136.214 133.059 139.836 124.72C143.326 116.675 146.626 109.077 154.578 98.204C161.145 89.224 170.378 78.744 182.745 66.234L185.081 68.57L197.513 56.138L174.123 32.748L161.698 45.177V45.178ZM51.174 220.68L9.56998 179.088C24.628 161.266 31.8 153.363 40.22 145.4L81.468 186.63L84.853 190.014C76.486 198.874 68.119 206.483 51.175 220.68H51.174ZM89.509 184.992L45.263 140.743C57.082 129.934 66.881 121.673 75.032 115.627L94.824 135.42L114.607 155.223C108.561 163.374 100.293 173.17 89.509 184.993V184.992ZM133.549 121.982C130.157 129.778 126.663 137.848 118.639 149.564L80.67 111.594C92.468 103.504 100.548 100.002 108.384 96.607C115.734 93.417 122.729 90.395 132.064 84.051L135.087 95.165L146.187 98.185C139.8 107.572 136.749 114.596 133.545 121.978L133.549 121.982V121.982ZM150.453 92.252L140.669 89.59L138.007 79.795C146.827 73.15 156.971 64.138 168.882 52.361L177.904 61.373C166.124 73.281 157.105 83.423 150.45 92.248L150.453 92.252V92.252ZM185.077 58.875L171.384 45.178L174.134 42.431L187.827 56.121L185.077 58.875Z" fill="#005268"/>
<path d="M71.438 40.493H78.288V35.822H82.959V28.975H78.289V24.305H71.439V28.975H66.767V35.822H71.438V40.493ZM212.847 148.944H205.997V153.614H201.327V160.464H205.997V165.132H212.847V160.465H217.518V153.615H212.848L212.847 148.944ZM137.794 189.543H130.944V194.213H126.274V201.063H130.944V205.735H137.794V201.064H142.465V194.214H137.795L137.794 189.543ZM15.788 110.202H23.989V118.402H15.789L15.788 110.202ZM167.38 133.202H175.58V141.402H167.38V133.202ZM37.491 77.899H45.692V86.099H37.492L37.491 77.899Z" fill="#FEEF6B"/>
<path d="M51.071 216.565L38.047 203.541L42.892 198.697L51.443 207.248L64.549 196.085L68.989 201.298L51.071 216.565ZM27.963 193.453L33.763 187.653L40.37 194.262L34.571 200.061L27.963 193.453Z" fill="white"/>
</svg>
